static/assets/img/icons/theme/layout/layout-top-panel-1.svg

<svg height="24" viewBox="0 0 24 24" width="24" xmlns="http://www.w3.org/2000/svg"><g fill="none" fill-rule="evenodd"><path d="m0 0h24v24h-24z" opacity="0"/><g fill="#000"><rect height="4" rx="1" width="19" x="2" y="4"/><path d="m3 10h3c.55228475 0 1 .4477153 1 1v8c0 .5522847-.44771525 1-1 1h-3c-.55228475 0-1-.4477153-1-1v-8c0-.5522847.44771525-1 1-1zm7 0h3c.5522847 0 1 .4477153 1 1v8c0 .5522847-.4477153 1-1 1h-3c-.55228475 0-1-.4477153-1-1v-8c0-.5522847.44771525-1 1-1zm7 0h3c.5522847 0 1 .4477153 1 1v8c0 .5522847-.4477153 1-1 1h-3c-.5522847 0-1-.4477153-1-1v-8c0-.5522847.4477153-1 1-1z" opacity=".3"/></g></g></svg>

<svg width="24px" height="24px" viewBox="0 0 24 24" version="1.1" xmlns="http://www.w3.org/2000/svg" xmlns:xlink="http://www.w3.org/1999/xlink">
    <title>Icon For Layout-top-panel-1</title>
    <g stroke="none" stroke-width="1" fill="none" fill-rule="evenodd">
        <rect opacity="0" x="0" y="0" width="24" height="24"></rect>
        <rect fill="#000000" x="2" y="4" width="19" height="4" rx="1"></rect>
        <path d="M3,10 L6,10 C6.55228475,10 7,10.4477153 7,11 L7,19 C7,19.5522847 6.55228475,20 6,20 L3,20 C2.44771525,20 2,19.5522847 2,19 L2,11 C2,10.4477153 2.44771525,10 3,10 Z M10,10 L13,10 C13.5522847,10 14,10.4477153 14,11 L14,19 C14,19.5522847 13.5522847,20 13,20 L10,20 C9.44771525,20 9,19.5522847 9,19 L9,11 C9,10.4477153 9.44771525,10 10,10 Z M17,10 L20,10 C20.5522847,10 21,10.4477153 21,11 L21,19 C21,19.5522847 20.5522847,20 20,20 L17,20 C16.4477153,20 16,19.5522847 16,19 L16,11 C16,10.4477153 16.4477153,10 17,10 Z" fill="#000000" opacity="0.3"></path>
    </g>
</svg>
